src/pos-icons/string-lights.svg

<svg height="24" viewBox="0 0 24 24" width="24" xmlns="http://www.w3.org/2000/svg"><path d="m22.56 11.39c-.2-.8-.74-1.54-1.51-1.95l-.42-1.7c.48-.16.94-.33 1.37-.51v-2.23c-2 1.07-5.47 2.03-10 2.03s-8-.96-10-2.03v2.23c.43.18.89.35 1.37.51l-.42 1.7c-.77.41-1.31 1.15-1.51 1.95-.535 2.18-1.055 5.92 1.48 6.54 1.08.27 3.08-.04 4.35-5.11.19-.82.06-1.7-.43-2.43l.42-1.72c.88.14 1.79.23 2.74.29v1.78c-.65.59-1 1.43-1 2.26 0 2.24.39 6 3 6 1.12 0 3-.78 3-6 0-.83-.35-1.67-1-2.26v-1.78c.95-.06 1.86-.15 2.74-.29l.42 1.72c-.49.73-.62 1.61-.43 2.43 1.27 5.07 3.27 5.38 4.35 5.11 2.53-.62 2.01-4.36 1.48-6.54m-16.75 1.08s-1.07 4.37-2.53 4.03c-1.46-.38-.38-4.75-.38-4.75s.36-1.46 1.81-1.1 1.1 1.82 1.1 1.82m6.19 5.03c-1.5 0-1.5-4.5-1.5-4.5s0-1.5 1.5-1.5 1.5 1.5 1.5 1.5 0 4.5-1.5 4.5m8.72-1c-1.45.34-2.53-4.03-2.53-4.03s-.36-1.47 1.1-1.82 1.81 1.1 1.81 1.1 1.08 4.37-.38 4.75z"/></svg>

<?xml version="1.0" encoding="UTF-8"?><!DOCTYPE svg PUBLIC "-//W3C//DTD SVG 1.1//EN" "http://www.w3.org/Graphics/SVG/1.1/DTD/svg11.dtd"><svg xmlns="http://www.w3.org/2000/svg" xmlns:xlink="http://www.w3.org/1999/xlink" version="1.1" id="mdi-string-lights" width="24" height="24" viewBox="0 0 24 24"><path d="M22.56 11.39C22.36 10.59 21.82 9.85 21.05 9.44L20.63 7.74C21.11 7.58 21.57 7.41 22 7.23V5C20 6.07 16.53 7.03 12 7.03S4 6.07 2 5V7.23C2.43 7.41 2.89 7.58 3.37 7.74L2.95 9.44C2.18 9.85 1.64 10.59 1.44 11.39C.905 13.57 .385 17.31 2.92 17.93C4 18.2 6 17.89 7.27 12.82C7.46 12 7.33 11.12 6.84 10.39L7.26 8.67C8.14 8.81 9.05 8.9 10 8.96V10.74C9.35 11.33 9 12.17 9 13C9 15.24 9.39 19 12 19C13.12 19 15 18.22 15 13C15 12.17 14.65 11.33 14 10.74V8.96C14.95 8.9 15.86 8.81 16.74 8.67L17.16 10.39C16.67 11.12 16.54 12 16.73 12.82C18 17.89 20 18.2 21.08 17.93C23.61 17.31 23.09 13.57 22.56 11.39M5.81 12.47C5.81 12.47 4.74 16.84 3.28 16.5C1.82 16.12 2.9 11.75 2.9 11.75S3.26 10.29 4.71 10.65 5.81 12.47 5.81 12.47M12 17.5C10.5 17.5 10.5 13 10.5 13S10.5 11.5 12 11.5 13.5 13 13.5 13 13.5 17.5 12 17.5M20.72 16.5C19.27 16.84 18.19 12.47 18.19 12.47S17.83 11 19.29 10.65 21.1 11.75 21.1 11.75 22.18 16.12 20.72 16.5Z" /></svg>
